svgs/regular/diagram-sankey.svg

<svg xmlns="http://www.w3.org/2000/svg" viewBox="0 0 576 512"><!--! Font Awesome Pro 6.5.1 by @fontawesome - https://fontawesome.com License - https://fontawesome.com/license (Commercial License) Copyright 2023 Fonticons, Inc. --><path d="M329.9 80c-2.8 0-5.4 1.5-6.8 3.8L253.8 197.2c-10.2 16.6-28.3 26.8-47.8 26.8H24c-13.3 0-24-10.7-24-24s10.7-24 24-24H206.1c2.8 0 5.4-1.5 6.8-3.8L282.2 58.8C292.3 42.2 310.4 32 329.9 32H552c13.3 0 24 10.7 24 24s-10.7 24-24 24H329.9zm-124 240l61.7 108c1.4 2.5 4.1 4 6.9 4H552c13.3 0 24 10.7 24 24s-10.7 24-24 24H274.6c-20.1 0-38.7-10.8-48.6-28.2L150.6 320H24c-13.3 0-24-10.7-24-24s10.7-24 24-24H552c13.3 0 24 10.7 24 24s-10.7 24-24 24H205.9z"/></svg>

<svg xmlns="http://www.w3.org/2000/svg" viewBox="0 0 576 512"><!--! Font Awesome Pro 6.1.1 by @fontawesome - https://fontawesome.com License - https://fontawesome.com/license (Commercial License) Copyright 2022 Fonticons, Inc. --><path d="M329.9 80C327.2 80 324.6 81.45 323.1 83.83L253.8 197.2C243.7 213.8 225.6 224 206.1 224H24C10.75 224 0 213.3 0 200C0 186.7 10.75 176 24 176H206.1C208.8 176 211.4 174.5 212.9 172.2L282.2 58.8C292.3 42.15 310.4 32 329.9 32H552C565.3 32 576 42.75 576 56C576 69.25 565.3 80 552 80H329.9zM205.9 320L267.6 427.1C269 430.5 271.7 432 274.6 432H552C565.3 432 576 442.7 576 456C576 469.3 565.3 480 552 480H274.6C254.5 480 235.9 469.2 225.9 451.8L150.6 320H24C10.75 320 0 309.3 0 296C0 282.7 10.75 272 24 272H552C565.3 272 576 282.7 576 296C576 309.3 565.3 320 552 320H205.9z"/></svg>
